; generated by PrusaSlicer 2.8.0+win64 on 2025-01-16 at 11:14:08 UTC


;
;
; 

; external perimeters extrusion width = 0.45mm
; perimeters extrusion width = 0.45mm
; infill extrusion width = 0.45mm
; solid infill extrusion width = 0.45mm
; top infill extrusion width = 0.40mm
; support material extrusion width = 0.35mm
; first layer extrusion width = 0.42mm

M73 P0 R99
M73 Q0 S101
M201 X1000 Y1000 Z200 E5000 ; sets maximum accelerations, mm/sec^2
M203 X200 Y200 Z12 E120 ; sets maximum feedrates, mm / sec
M204 S1250 T1250 ; sets acceleration (S) and retract acceleration (R), mm/sec^2
M205 X8.00 Y8.00 Z0.40 E4.50 ; sets the jerk limits, mm/sec
M205 S0 T0 ; sets the minimum extruding and travel feed rate, mm/sec

; printing object led_solder_mold_rect.stl id:0 copy 0
; stop printing object led_solder_mold_rect.stl id:0 copy 0
; printing object led_solder_mold_rect.stl id:0 copy 1
; stop printing object led_solder_mold_rect.stl id:0 copy 1

;TYPE:Custom
M862.3 P "MK3S" ; printer model check
M862.1 P0.4 ; nozzle diameter check
M115 U3.13.3 ; tell printer latest fw version
G90 ; use absolute coordinates
M83 ; extruder relative mode
M104 S230 ; set extruder temp
M140 S85 ; set bed temp
M190 S85 ; wait for bed temp
M109 S230 ; wait for extruder temp
G28 W ; home all without mesh bed level
G80 X6.64342 Y13.6229 W236.713 H182.754 ; mesh bed levelling

G1 Z0.2 F720
G1 Y-3 F1000 ; go outside print area
G92 E0
G1 X60 E9 F1000 ; intro line
G1 X100 E12.5 F1000 ; intro line

G92 E0
M221 S95

; Don't change E values below. Excessive value can damage the printer.

M907 E538 ; set extruder motor current
G21 ; set units to millimeters
G90 ; use absolute coordinates
M83 ; use relative distances for extrusion
M900 K0.08 ; Filament gcode LA 1.5
M900 K45 ; Filament gcode LA 1.0

M107
;LAYER_CHANGE
;Z:0.2
;HEIGHT:0.2
G1 E-1 F2100
M73 P0 R98
G1 Z.4 F720
G1 X10.269 Y15.371 F10800
G1 Z.2 F720
G1 E1 F2100
M204 S800
;TYPE:Skirt/Brim
;WIDTH:0.42
G1 F1200
G1 X11.127 Y14.797 E.03237
G1 X12.425 Y14.235 E.04435
G1 X13.554 Y13.945 E.03655
G1 X15.013 Y13.812 E.04594
G1 X235.048 Y13.813 E6.89904
G1 X236.581 Y13.97 E.04832
G1 X238.057 Y14.413 E.04832
M73 Q0 S100
G1 X238.864 Y14.792 E.02795
G1 X239.734 Y15.334 E.03214
G1 X240.885 Y16.329 E.0477
G1 X241.856 Y17.555 E.04904
G1 X242.567 Y18.922 E.04831
G1 X243.009 Y20.398 E.04831
G1 X243.167 Y21.931 E.04832
G1 X243.167 Y188.069 E5.20914
G1 X243.111 Y188.958 E.02793
G1 X242.927 Y189.97 E.03225
G1 X242.358 Y191.548 E.0526
G1 X241.856 Y192.445 E.03223
G1 X241.332 Y193.166 E.02795
G1 X240.145 Y194.352 E.05261
G1 X238.864 Y195.208 E.04831
G1 X237.575 Y195.765 E.04403
G1 X236.446 Y196.055 E.03655
G1 X234.98 Y196.189 E.04616
G1 X15.02 Y196.189 E6.89669
G1 X14.063 Y196.132 E.03006
G1 X13.051 Y195.947 E.03226
G1 X11.472 Y195.379 E.05261
G1 X10.691 Y194.95 E.02794
G1 X9.855 Y194.352 E.03223
G1 X8.668 Y193.166 E.05261
G1 X7.879 Y192.005 E.04401
G1 X7.255 Y190.595 E.04835
G1 X6.965 Y189.467 E.03652
G1 X6.832 Y188 E.04619
G1 X6.832 Y22 E5.20481
G1 X6.889 Y21.042 E.03009
G1 X7.073 Y20.03 E.03225
G1 X7.642 Y18.452 E.0526
G1 X8.144 Y17.555 E.03223
G1 X8.668 Y16.834 E.02795
G1 X9.855 Y15.648 E.05261
G1 X10.219 Y15.404 E.01374
M204 S1000
;WIPE_START
G1 F8640
G1 X10.269 Y15.371 E-.01383
G1 X11.127 Y14.797 E-.23836
G1 X12.425 Y14.235 E-.3266
G1 X13.554 Y13.945 E-.26915
G1 X14.21 Y13.885 E-.15206
;WIPE_END
G1 Z.4 F720
; printing object led_solder_mold_rect.stl id:0 copy 1
G1 X132.634 Y27.063 F10800
G1 Z.2 F720
G1 E1 F2100
M204 S800
;TYPE:Perimeter
;WIDTH:0.419999
G1 F1200
G1 X132.724 Y26.957 E.00436
G1 X132.817 Y26.901 E.0034
G1 X133.316 Y26.793 E.01601
G1 X133.979 Y26.834 E.02083
G1 X134.585 Y26.796 E.01904
G1 X135.182 Y26.682 E.01906
G1 X135.759 Y26.494 E.01903
G1 X136.295 Y26.242 E.01857
G1 X137.071 Y25.715 E.02941
G1 X137.503 Y25.309 E.01859
G1 X137.89 Y24.841 E.01904
G1 X138.215 Y24.329 E.01901
G1 X138.474 Y23.779 E.01906
G1 X138.661 Y23.202 E.01902
G1 X138.775 Y22.606 E.01903
G1 X138.813 Y21.999 E.01907
G1 X138.772 Y21.337 E.0208
G1 X138.828 Y20.956 E.01207
G1 X139.011 Y20.649 E.01121
G1 X139.312 Y20.425 E.01176
G1 X139.713 Y20.336 E.01288
G1 X229.246 Y20.336 E2.80724
G1 X229.647 Y20.425 E.01288
G1 X229.968 Y20.673 E.01272
G1 X230.083 Y20.845 E.00649
G1 X230.187 Y21.337 E.01577
G1 X230.146 Y21.999 E.0208
G1 X230.183 Y22.591 E.0186
G1 X230.388 Y23.507 E.02943
G1 X230.606 Y24.058 E.01858
G1 X230.891 Y24.577 E.01856
G1 X231.467 Y25.32 E.02948
G1 X231.887 Y25.714 E.01806
G1 X232.664 Y26.242 E.02945
G1 X233.2 Y26.494 E.01857
G1 X233.777 Y26.682 E.01903
G1 X234.374 Y26.796 E.01906
G1 X234.98 Y26.834 E.01904
G1 X235.643 Y26.793 E.02083
G1 X236.023 Y26.848 E.01204
G1 X236.33 Y27.032 E.01122
G1 X236.554 Y27.333 E.01176
G1 X236.644 Y27.734 E.01289
G1 X236.644 Y182.266 E4.84523
G1 X236.554 Y182.667 E.01289
M73 P1 R98
M73 Q1 S100
G1 X236.312 Y182.984 E.0125
G1 X236.166 Y183.086 E.00558
G1 X235.726 Y183.208 E.01432
G1 X235.011 Y183.168 E.02245
G1 X234.404 Y183.202 E.01906
G1 X233.895 Y183.296 E.01623
G1 X233.229 Y183.496 E.0218
G1 X232.699 Y183.741 E.01831
G1 X232.274 Y184.023 E.01599
G1 X231.859 Y184.313 E.01587
G1 X231.456 Y184.691 E.01732
G1 X231.069 Y185.159 E.01904
G1 X230.744 Y185.671 E.01901
G1 X230.485 Y186.221 E.01906
G1 X230.298 Y186.798 E.01902
G1 X230.184 Y187.394 E.01903
G1 X230.146 Y188.001 E.01907
G1 X230.187 Y188.663 E.0208
G1 X230.131 Y189.044 E.01207
G1 X229.948 Y189.351 E.01121
G1 X229.647 Y189.575 E.01176
G1 X229.246 Y189.664 E.01288
G1 X139.713 Y189.664 E2.80724
G1 X139.312 Y189.575 E.01288
M73 P1 R97
G1 X139.003 Y189.341 E.01215
G1 X138.825 Y189.038 E.01102
G1 X138.772 Y188.663 E.01187
G1 X138.813 Y188.001 E.0208
G1 X138.794 Y187.697 E.00955
G1 X138.768 Y187.371 E.01025
G1 X138.575 Y186.507 E.02776
G1 X138.208 Y185.659 E.02897
G1 X137.89 Y185.159 E.01858
G1 X137.513 Y184.703 E.01855
G1 X136.807 Y184.081 E.0295
G1 X136.308 Y183.764 E.01854
G1 X135.759 Y183.506 E.01902
G1 X135.182 Y183.318 E.01903
G1 X134.585 Y183.204 E.01906
G1 X133.979 Y183.166 E.01904
G1 X133.316 Y183.207 E.02083
G1 X132.936 Y183.152 E.01204
G1 X132.629 Y182.968 E.01122
G1 X132.405 Y182.667 E.01176
G1 X132.315 Y182.266 E.01289
G1 X132.315 Y27.734 E4.84523
G1 X132.405 Y27.333 E.01289
G1 X132.595 Y27.109 E.00921
M204 S1000
G1 X132.595 Y27.109 F10800
G1 X132.88 Y27.335
M204 S800
G1 F1200
G1 X132.938 Y27.268 E.00278
G1 X133.252 Y27.168 E.01033
G1 X133.925 Y27.208 E.02114
G1 X134.44 Y27.183 E.01617
G1 X135.09 Y27.083 E.02062
G1 X135.846 Y26.863 E.02469
G1 X136.316 Y26.649 E.01619
G1 X136.897 Y26.289 E.02143
G1 X137.358 Y25.963 E.0177
G1 X137.779 Y25.568 E.0181
G1 X138.196 Y25.063 E.02053
G1 X138.547 Y24.511 E.02051
G1 X138.825 Y23.918 E.02053
G1 X139.027 Y23.296 E.02051
G1 X139.15 Y22.653 E.02053
G1 X139.191 Y22 E.02051
G1 X139.149 Y21.313 E.02158
G1 X139.182 Y21.085 E.00722
G1 X139.292 Y20.901 E.00672
G1 X139.473 Y20.767 E.00706
G1 X139.713 Y20.713 E.00771
G1 X229.246 Y20.713 E2.80724
G1 X229.486 Y20.767 E.00771
M73 Q1 S99
G1 X229.714 Y20.962 E.00941
G1 X229.81 Y21.313 E.01141
G1 X229.768 Y22 E.02158
G1 X229.808 Y22.644 E.02023
G1 X230.026 Y23.619 E.03133
G1 X230.264 Y24.219 E.02024
G1 X230.575 Y24.785 E.02025
G1 X231.187 Y25.574 E.03131
G1 X231.651 Y26.01 E.01996
G1 X232.477 Y26.571 E.03131
G1 X233.061 Y26.846 E.02024
G1 X233.683 Y27.048 E.02051
G1 X234.326 Y27.171 E.02053
G1 X234.98 Y27.212 E.02055
G1 X235.666 Y27.169 E.02155
G1 X235.894 Y27.202 E.00722
G1 X236.079 Y27.313 E.00676
G1 X236.213 Y27.493 E.00704
G1 X236.267 Y27.734 E.00774
G1 X236.267 Y182.266 E4.84523
G1 X236.213 Y182.507 E.00774
G1 X235.98 Y182.758 E.01074
G1 X235.666 Y182.831 E.01011
G1 X234.98 Y182.788 E.02155
G1 X234.326 Y182.829 E.02055
G1 X233.683 Y182.952 E.02053
G1 X233.061 Y183.154 E.02051
G1 X232.477 Y183.429 E.02024
G1 X231.65 Y183.991 E.03135
G1 X231.18 Y184.432 E.02021
G1 X230.763 Y184.937 E.02053
G1 X230.412 Y185.489 E.02051
G1 X230.134 Y186.082 E.02053
G1 X229.932 Y186.704 E.02051
G1 X229.809 Y187.347 E.02053
G1 X229.768 Y188 E.02051
G1 X229.81 Y188.687 E.02158
G1 X229.777 Y188.915 E.00722
G1 X229.667 Y189.099 E.00672
G1 X229.486 Y189.233 E.00706
G1 X229.246 Y189.287 E.00771
G1 X139.713 Y189.287 E2.80724
G1 X139.473 Y189.233 E.00771
G1 X139.226 Y189.008 E.01048
G1 X139.149 Y188.687 E.01035
G1 X139.191 Y188 E.02158
G1 X139.171 Y187.673 E.01027
G1 X139.136 Y187.289 E.01209
G1 X138.935 Y186.39 E.02888
G1 X138.542 Y185.482 E.03102
G1 X138.196 Y184.937 E.02024
G1 X137.784 Y184.439 E.02027
G1 X137.035 Y183.778 E.03132
G1 X136.49 Y183.433 E.02022
G1 X135.898 Y183.154 E.02052
G1 X135.276 Y182.952 E.02051
G1 X134.633 Y182.829 E.02053
G1 X133.979 Y182.788 E.02055
G1 X133.293 Y182.831 E.02155
G1 X133.065 Y182.798 E.00722
G1 X132.88 Y182.687 E.00676
G1 X132.746 Y182.507 E.00704
G1 X132.692 Y182.266 E.00774
G1 X132.692 Y27.734 E4.84523
G1 X132.746 Y27.493 E.00774
G1 X132.841 Y27.381 E.0046
M204 S1000
G1 X132.841 Y27.381 F10800
G1 X133.124 Y27.631
M204 S800
;TYPE:External perimeter
G1 F1200
G1 X133.151 Y27.578 E.00186
G1 X133.27 Y27.546 E.00386
G1 X133.979 Y27.589 E.02227
G1 X134.68 Y27.545 E.02202
G1 X135.37 Y27.414 E.02202
G1 X136.037 Y27.197 E.02199
G1 X136.67 Y26.899 E.02194
G1 X137.544 Y26.305 E.03313
G1 X138.054 Y25.826 E.02194
G1 X138.502 Y25.285 E.02202
G1 X138.878 Y24.693 E.02199
G1 X139.177 Y24.057 E.02204
G1 X139.393 Y23.39 E.02198
G1 X139.525 Y22.701 E.022
G1 X139.569 Y22 E.02202
G1 X139.525 Y21.29 E.0223
G1 X139.573 Y21.153 E.00455
G1 X139.713 Y21.09 E.00481
G1 X229.246 Y21.09 E2.80724
G1 X229.402 Y21.173 E.00554
G1 X229.434 Y21.29 E.0038
G1 X229.39 Y22 E.0223
G1 X229.434 Y22.698 E.02193
G1 X229.665 Y23.73 E.03316
G1 X229.922 Y24.38 E.02192
G1 X230.259 Y24.992 E.02191
G1 X230.908 Y25.829 E.03321
G1 X231.414 Y26.305 E.02178
G1 X232.289 Y26.899 E.03316
G1 X232.922 Y27.197 E.02194
G1 X233.589 Y27.414 E.02199
G1 X234.279 Y27.545 E.02202
G1 X234.98 Y27.589 E.02202
G1 X235.689 Y27.546 E.02227
G1 X235.827 Y27.594 E.00458
G1 X235.89 Y27.734 E.00481
G1 X235.89 Y182.266 E4.84523
G1 X235.823 Y182.41 E.00498
G1 X235.689 Y182.454 E.00442
G1 X234.98 Y182.411 E.02227
G1 X234.279 Y182.455 E.02202
G1 X233.589 Y182.586 E.02202
G1 X232.922 Y182.803 E.02199
G1 X232.289 Y183.101 E.02194
G1 X231.414 Y183.696 E.03318
G1 X230.905 Y184.174 E.02189
G1 X230.458 Y184.715 E.022
G1 X230.081 Y185.307 E.02201
G1 X229.782 Y185.943 E.02204
G1 X229.566 Y186.61 E.02198
G1 X229.434 Y187.299 E.022
G1 X229.39 Y188 E.02202
G1 X229.434 Y188.71 E.0223
G1 X229.386 Y188.847 E.00455
G1 X229.246 Y188.91 E.00481
G1 X139.713 Y188.91 E2.80724
G1 X139.571 Y188.845 E.0049
M73 P2 R97
M73 Q2 S99
G1 X139.525 Y188.71 E.00447
G1 X139.569 Y188 E.0223
G1 X139.547 Y187.65 E.011
G1 X139.504 Y187.207 E.01396
G1 X139.295 Y186.273 E.03001
G1 X138.876 Y185.305 E.03307
G1 X138.501 Y184.715 E.02192
G1 X138.056 Y184.176 E.02192
G1 X137.262 Y183.476 E.03319
G1 X136.672 Y183.102 E.0219
G1 X136.037 Y182.803 E.02201
G1 X135.37 Y182.586 E.02199
G1 X134.68 Y182.455 E.02202
G1 X133.979 Y182.411 E.02202
G1 X133.27 Y182.454 E.02227
G1 X133.132 Y182.406 E.00458
G1 X133.07 Y182.266 E.0048
G1 X133.07 Y27.734 E4.84523
G1 X133.096 Y27.684 E.00177
M73 P2 R96
M204 S1000
;WIPE_START
G1 F8640
G1 X133.124 Y27.631 E-.01384
G1 X133.151 Y27.578 E-.01373
G1 X133.27 Y27.546 E-.02845
G1 X133.979 Y27.589 E-.16401
G1 X134.68 Y27.545 E-.16218
G1 X135.37 Y27.414 E-.16217
G1 X136.037 Y27.197 E-.16196
G1 X136.67 Y26.899 E-.16155
G1 X137.143 Y26.577 E-.13211
;WIPE_END
G1 Z.4 F720
G1 X134.015 Y184.166 F10800
G1 Z.2 F720
G1 E1 F2100
M204 S800
;TYPE:Perimeter
G1 F1200
G1 X134.492 Y184.183 E.01497
G1 X134.923 Y184.263 E.01374
G1 X135.402 Y184.407 E.01568
G1 X135.85 Y184.63 E.01569
G1 X136.214 Y184.859 E.01348
G1 X136.687 Y185.247 E.01918
G1 X137.05 Y185.659 E.01722
G1 X137.353 Y186.138 E.01777
G1 X137.51 Y186.437 E.01059
G1 X137.696 Y186.954 E.01723
G1 X137.808 Y187.554 E.01914
G1 X137.833 Y187.985 E.01354
G1 X137.804 Y188.542 E.01749
G1 X137.678 Y189.108 E.01818
G1 X137.494 Y189.575 E.01574
G1 X137.319 Y189.937 E.01261
G1 X137.01 Y190.392 E.01725
G1 X136.61 Y190.815 E.01825
G1 X136.269 Y191.097 E.01387
G1 X135.727 Y191.44 E.02011
G1 X135.135 Y191.678 E.02001
G1 X134.717 Y191.783 E.01351
G1 X134.133 Y191.858 E.01846
G1 X133.572 Y191.839 E.0176
G1 X133.046 Y191.727 E.01686
G1 X132.476 Y191.556 E.01866
G1 X131.986 Y191.307 E.01723
G1 X131.402 Y190.875 E.02278
G1 X131 Y190.445 E.01846
G1 X130.733 Y190.077 E.01426
G1 X130.449 Y189.563 E.01841
G1 X130.263 Y189.046 E.01723
G1 X130.154 Y188.468 E.01844
G1 X130.126 Y188.015 E.01423
G1 X130.146 Y187.516 E.01566
G1 X130.251 Y187.027 E.01568
G1 X130.391 Y186.595 E.01424
G1 X130.593 Y186.138 E.01567
G1 X131.087 Y185.446 E.02666
G1 X131.515 Y185.038 E.01854
G1 X131.782 Y184.825 E.01071
G1 X132.256 Y184.545 E.01726
G1 X132.934 Y184.283 E.02279
G1 X133.66 Y184.152 E.02313
G1 X133.955 Y184.163 E.00926
M204 S1000
G1 X133.955 Y184.163 F10800
G1 X134.003 Y184.538
M204 S800
G1 F1200
G1 X134.468 Y184.56 E.0146
G1 X134.818 Y184.626 E.01117
G1 X135.312 Y184.78 E.01622
G1 X135.802 Y185.029 E.01723
G1 X136.326 Y185.423 E.02056
G1 X136.767 Y185.909 E.02058
G1 X137.11 Y186.468 E.02056
G1 X137.368 Y187.185 E.02389
G1 X137.454 Y187.728 E.01724
G1 X137.443 Y188.384 E.02057
G1 X137.31 Y189.026 E.02056
G1 X137.059 Y189.632 E.02057
G1 X136.698 Y190.18 E.02058
G1 X136.344 Y190.548 E.01601
G1 X136.068 Y190.779 E.01128
G1 X135.526 Y191.122 E.02011
G1 X135.007 Y191.323 E.01745
G1 X134.251 Y191.475 E.02418
G1 X133.585 Y191.462 E.02089
G1 X132.762 Y191.264 E.02654
G1 X132.157 Y190.971 E.02108
G1 X131.633 Y190.577 E.02056
G1 X131.283 Y190.195 E.01624
G1 X131.058 Y189.885 E.01201
G1 X130.804 Y189.436 E.01617
G1 X130.617 Y188.918 E.01727
G1 X130.527 Y188.409 E.01621
G1 X130.503 Y188.027 E.012
G1 X130.529 Y187.51 E.01623
G1 X130.649 Y186.974 E.01722
G1 X130.9 Y186.368 E.02057
G1 X131.392 Y185.667 E.02685
G1 X131.974 Y185.149 E.02443
G1 X132.448 Y184.87 E.01725
G1 X133.061 Y184.638 E.02055
G1 X133.718 Y184.525 E.0209
G1 X133.944 Y184.535 E.00709
M204 S1000
G1 X133.944 Y184.535 F10800
G1 X133.955 Y184.908
M204 S800
;TYPE:External perimeter
G1 F1200
G1 X134.444 Y184.936 E.01536
G1 X135.108 Y185.102 E.02146
G1 X135.631 Y185.365 E.01835
G1 X136.095 Y185.721 E.01834
G1 X136.485 Y186.158 E.01836
G1 X136.785 Y186.66 E.01834
G1 X136.987 Y187.21 E.01837
G1 X137.082 Y187.787 E.01833
G1 X137.067 Y188.372 E.01835
G1 X136.942 Y188.944 E.01836
G1 X136.713 Y189.482 E.01833
G1 X136.387 Y189.968 E.01835
G1 X135.967 Y190.39 E.01867
G1 X135.424 Y190.74 E.02026
G1 X134.879 Y190.968 E.01852
G1 X134.192 Y191.102 E.02195
G1 X133.598 Y191.086 E.01863
G1 X132.857 Y190.899 E.02396
G1 X132.328 Y190.635 E.01854
G1 X131.864 Y190.279 E.01834
G1 X131.474 Y189.842 E.01836
G1 X131.174 Y189.34 E.01834
G1 X130.972 Y188.79 E.01837
G1 X130.877 Y188.213 E.01833
G1 X130.892 Y187.628 E.01835
G1 X131.017 Y187.056 E.01836
G1 X131.246 Y186.518 E.01833
G1 X131.697 Y185.889 E.02427
G1 X132.138 Y185.495 E.01854
G1 X132.64 Y185.194 E.01835
G1 X133.189 Y184.993 E.01833
G1 X133.776 Y184.898 E.01864
G1 X133.895 Y184.904 E.00374
M204 S1000
;WIPE_START
G1 F8640
G1 X133.955 Y184.908 E-.01388
G1 X134.444 Y184.936 E-.1131
G1 X135.108 Y185.102 E-.15804
G1 X135.631 Y185.365 E-.13517
G1 X136.095 Y185.721 E-.13504
G1 X136.485 Y186.158 E-.13524
G1 X136.785 Y186.66 E-.13503
G1 X136.987 Y187.21 E-.13529
G1 X137.014 Y187.378 E-.03921
;WIPE_END
G1 Z.4 F720
G1 X231.136 Y187.961 F10800
G1 Z.2 F720
G1 E1 F2100
M204 S800
;TYPE:Perimeter
G1 F1200
G1 X231.139 Y187.605 E.01116
G1 X231.259 Y187.044 E.01799
G1 X231.407 Y186.532 E.01671
G1 X231.672 Y186.008 E.01841
G1 X232.105 Y185.422 E.02285
G1 X232.517 Y185.036 E.0177
G1 X232.782 Y184.825 E.01062
G1 X233.256 Y184.545 E.01726
G1 X233.934 Y184.283 E.02279
G1 X234.511 Y184.176 E.0184
G1 X234.949 Y184.148 E.01376
G1 X235.588 Y184.189 E.02008
G1 X236.318 Y184.378 E.02364
G1 X236.973 Y184.693 E.02279
G1 X237.469 Y185.056 E.01927
G1 X237.775 Y185.347 E.01324
G1 X238.106 Y185.728 E.01582
G1 X238.364 Y186.157 E.0157
G1 X238.557 Y186.567 E.01421
G1 X238.723 Y187.039 E.01569
G1 X238.826 Y187.669 E.02002
G1 X238.82 Y188.396 E.0228
G1 X238.708 Y188.973 E.01843
