; generated by PrusaSlicer 2.8.0+linux-x64-GTK3 on 2025-01-14 at 16:53:37 UTC


;
;
; 

; external perimeters extrusion width = 0.45mm
; perimeters extrusion width = 0.45mm
; infill extrusion width = 0.45mm
; solid infill extrusion width = 0.45mm
; top infill extrusion width = 0.40mm
; support material extrusion width = 0.35mm
; first layer extrusion width = 0.42mm

M73 P0 R307
M73 Q0 S317
M201 X1000 Y1000 Z200 E5000 ; sets maximum accelerations, mm/sec^2
M203 X200 Y200 Z12 E120 ; sets maximum feedrates, mm / sec
M204 S1250 T1250 ; sets acceleration (S) and retract acceleration (R), mm/sec^2
M205 X8.00 Y8.00 Z0.40 E4.50 ; sets the jerk limits, mm/sec
M205 S0 T0 ; sets the minimum extruding and travel feed rate, mm/sec

; printing object leg150.stl id:0 copy 0
; stop printing object leg150.stl id:0 copy 0
; printing object leg150.stl id:0 copy 1
; stop printing object leg150.stl id:0 copy 1
; printing object leg150.stl id:0 copy 2
; stop printing object leg150.stl id:0 copy 2
; printing object leg150.stl id:0 copy 3
; stop printing object leg150.stl id:0 copy 3
; printing object leg150.stl id:0 copy 4
; stop printing object leg150.stl id:0 copy 4
; printing object leg150.stl id:0 copy 5
; stop printing object leg150.stl id:0 copy 5
; printing object leg150.stl id:0 copy 6
; stop printing object leg150.stl id:0 copy 6
; printing object leg150.stl id:0 copy 7
; stop printing object leg150.stl id:0 copy 7
; printing object leg150.stl id:0 copy 8
; stop printing object leg150.stl id:0 copy 8
; printing object leg150.stl id:0 copy 9
; stop printing object leg150.stl id:0 copy 9
; printing object leg150.stl id:0 copy 10
; stop printing object leg150.stl id:0 copy 10
; printing object leg150.stl id:0 copy 11
; stop printing object leg150.stl id:0 copy 11
; printing object leg150.stl id:0 copy 12
; stop printing object leg150.stl id:0 copy 12
; printing object leg150.stl id:0 copy 13
; stop printing object leg150.stl id:0 copy 13
; printing object leg150.stl id:0 copy 14
; stop printing object leg150.stl id:0 copy 14
; printing object leg150.stl id:0 copy 15
; stop printing object leg150.stl id:0 copy 15

;TYPE:Custom
M862.3 P "MK3S" ; printer model check
M862.1 P0.4 ; nozzle diameter check
M115 U3.14.0 ; tell printer latest fw version
G90 ; use absolute coordinates
M83 ; extruder relative mode
M104 S230 ; set extruder temp
M140 S85 ; set bed temp
M190 S85 ; wait for bed temp
M109 S230 ; wait for extruder temp
G28 W ; home all without mesh bed level
G80 X11.4592 Y27.6229 W227.082 H154.754 ; mesh bed levelling

G1 Z0.2 F720
G1 Y-3 F1000 ; go outside print area
G92 E0
G1 X60 E9 F1000 ; intro line
G1 X100 E12.5 F1000 ; intro line

G92 E0
M221 S95

; Don't change E values below. Excessive value can damage the printer.

M907 E538 ; set extruder motor current
G21 ; set units to millimeters
G90 ; use absolute coordinates
M83 ; use relative distances for extrusion

M900 K0.08 ; Filament gcode LA 1.5
M900 K45 ; Filament gcode LA 1.0




M107
;LAYER_CHANGE
;Z:0.2
;HEIGHT:0.2
G1 E-1 F2100
G1 Z.4 F720
G1 X13.072 Y27.949 F10800
G1 Z.2 F720
G1 E1 F2100
M204 S800
;TYPE:Skirt/Brim
;WIDTH:0.42
G1 F1200
G1 X13.836 Y27.811 E.02434
G1 X236.164 Y27.811 E6.97094
G1 X237.412 Y28.202 E.04101
G1 X238.214 Y29.235 E.041
G1 X238.352 Y30 E.02437
G1 X238.352 Y180 E4.70314
G1 X237.961 Y181.248 E.04101
G1 X236.928 Y182.051 E.04102
G1 X236.164 Y182.189 E.02434
G1 X13.836 Y182.189 E6.97094
G1 X12.588 Y181.798 E.04101
G1 X11.786 Y180.765 E.041
G1 X11.648 Y180 E.02437
G1 X11.648 Y30 E4.70314
G1 X12.039 Y28.752 E.04101
M73 Q0 S316
G1 X13.024 Y27.986 E.03912
M204 S1000
;WIPE_START
G1 F8640
G1 X13.072 Y27.949 E-.01399
G1 X13.836 Y27.811 E-.17926
G1 X17.33 Y27.811 E-.80675
;WIPE_END
G1 Z.4 F720
; printing object leg150.stl id:0 copy 7
G1 X232.354 Y30.787 F10800
G1 Z.2 F720
G1 E1 F2100
M204 S800
;TYPE:Perimeter
;WIDTH:0.419999
G1 F1200
G1 X235.146 Y30.787 E.08754
G1 X235.146 Y32.183 E.04377
G1 X235.146 Y179.213 E4.61001
G1 X232.354 Y179.213 E.08754
M73 P0 R306
G1 X232.354 Y30.847 E4.6519
M204 S1000
G1 X232.354 Y30.847 F10800
G1 X231.977 Y30.41
M204 S800
;TYPE:External perimeter
G1 F1200
G1 X235.523 Y30.41 E.11118
G1 X235.523 Y32.183 E.05559
G1 X235.523 Y179.59 E4.62184
G1 X231.977 Y179.59 E.11118
G1 X231.977 Y30.47 E4.67555
M204 S1000
;WIPE_START
G1 F8640
G1 X231.977 Y30.41 E-.01385
G1 X235.523 Y30.41 E-.81878
G1 X235.523 Y31.135 E-.16737
;WIPE_END
G1 Z.4 F720
G1 X234.976 Y31.72 F10800
G1 Z.2 F720
G1 E1 F2100
M204 S800
;TYPE:Solid infill
;WIDTH:0.420579
G1 F1200
G1 X234.382 Y31.126 E.02638
G1 X233.848 Y31.126 E.01677
G1 X234.806 Y32.085 E.04257
G1 X234.806 Y32.619 E.01677
G1 X233.314 Y31.126 E.06628
G1 X232.78 Y31.126 E.01677
G1 X234.806 Y33.153 E.09
G1 X234.806 Y33.687 E.01677
G1 X232.694 Y31.574 E.09382
G1 X232.694 Y32.108 E.01677
G1 X234.806 Y34.221 E.09382
G1 X234.806 Y34.755 E.01677
G1 X232.694 Y32.643 E.09379
G1 X232.694 Y33.177 E.01677
G1 X234.806 Y35.289 E.09379
G1 X234.806 Y35.823 E.01677
G1 X232.694 Y33.711 E.09379
G1 X232.694 Y34.245 E.01677
G1 X234.806 Y36.357 E.09379
G1 X234.806 Y36.891 E.01677
G1 X232.694 Y34.779 E.09379
G1 X232.694 Y35.313 E.01677
G1 X234.806 Y37.426 E.09382
G1 X234.806 Y37.96 E.01677
G1 X232.694 Y35.847 E.09382
G1 X232.694 Y36.381 E.01677
G1 X234.806 Y38.494 E.09382
G1 X234.806 Y39.028 E.01677
G1 X232.694 Y36.915 E.09382
G1 X232.694 Y37.449 E.01677
G1 X234.806 Y39.562 E.09382
G1 X234.806 Y40.096 E.01677
G1 X232.694 Y37.983 E.09382
G1 X232.694 Y38.518 E.0168
G1 X234.806 Y40.63 E.09379
G1 X234.806 Y41.164 E.01677
G1 X232.694 Y39.052 E.09379
G1 X232.694 Y39.586 E.01677
G1 X234.806 Y41.698 E.09379
G1 X234.806 Y42.232 E.01677
G1 X232.694 Y40.12 E.09379
G1 X232.694 Y40.654 E.01677
G1 X234.806 Y42.766 E.09379
G1 X234.806 Y43.301 E.0168
G1 X232.694 Y41.188 E.09382
G1 X232.694 Y41.722 E.01677
G1 X234.806 Y43.835 E.09382
G1 X234.806 Y44.369 E.01677
G1 X232.694 Y42.256 E.09382
G1 X232.694 Y42.79 E.01677
G1 X234.806 Y44.903 E.09382
G1 X234.806 Y45.437 E.01677
G1 X232.694 Y43.324 E.09382
G1 X232.694 Y43.858 E.01677
G1 X234.806 Y45.971 E.09382
G1 X234.806 Y46.505 E.01677
G1 X232.694 Y44.393 E.09379
G1 X232.694 Y44.927 E.01677
G1 X234.806 Y47.039 E.09379
G1 X234.806 Y47.573 E.01677
G1 X232.694 Y45.461 E.09379
G1 X232.694 Y45.995 E.01677
G1 X234.806 Y48.107 E.09379
G1 X234.806 Y48.641 E.01677
G1 X232.694 Y46.529 E.09379
G1 X232.694 Y47.063 E.01677
G1 X234.806 Y49.176 E.09382
G1 X234.806 Y49.71 E.01677
G1 X232.694 Y47.597 E.09382
G1 X232.694 Y48.131 E.01677
G1 X234.806 Y50.244 E.09382
G1 X234.806 Y50.778 E.01677
G1 X232.694 Y48.665 E.09382
G1 X232.694 Y49.199 E.01677
G1 X234.806 Y51.312 E.09382
G1 X234.806 Y51.846 E.01677
G1 X232.694 Y49.733 E.09382
G1 X232.694 Y50.268 E.0168
G1 X234.806 Y52.38 E.09379
G1 X234.806 Y52.914 E.01677
G1 X232.694 Y50.802 E.09379
G1 X232.694 Y51.336 E.01677
G1 X234.806 Y53.448 E.09379
G1 X234.806 Y53.982 E.01677
G1 X232.694 Y51.87 E.09379
G1 X232.694 Y52.404 E.01677
G1 X234.806 Y54.516 E.09379
G1 X234.806 Y55.051 E.0168
G1 X232.694 Y52.938 E.09382
G1 X232.694 Y53.472 E.01677
G1 X234.806 Y55.585 E.09382
G1 X234.806 Y56.119 E.01677
G1 X232.694 Y54.006 E.09382
G1 X232.694 Y54.54 E.01677
G1 X234.806 Y56.653 E.09382
G1 X234.806 Y57.187 E.01677
G1 X232.694 Y55.074 E.09382
G1 X232.694 Y55.608 E.01677
G1 X234.806 Y57.721 E.09382
G1 X234.806 Y58.255 E.01677
G1 X232.694 Y56.143 E.09379
G1 X232.694 Y56.677 E.01677
G1 X234.806 Y58.789 E.09379
G1 X234.806 Y59.323 E.01677
G1 X232.694 Y57.211 E.09379
G1 X232.694 Y57.745 E.01677
G1 X234.806 Y59.857 E.09379
G1 X234.806 Y60.391 E.01677
G1 X232.694 Y58.279 E.09379
G1 X232.694 Y58.813 E.01677
G1 X234.806 Y60.926 E.09382
G1 X234.806 Y61.46 E.01677
G1 X232.694 Y59.347 E.09382
G1 X232.694 Y59.881 E.01677
G1 X234.806 Y61.994 E.09382
G1 X234.806 Y62.528 E.01677
G1 X232.694 Y60.415 E.09382
G1 X232.694 Y60.949 E.01677
G1 X234.806 Y63.062 E.09382
G1 X234.806 Y63.596 E.01677
G1 X232.694 Y61.483 E.09382
G1 X232.694 Y62.018 E.0168
G1 X234.806 Y64.13 E.09379
G1 X234.806 Y64.664 E.01677
G1 X232.694 Y62.552 E.09379
G1 X232.694 Y63.086 E.01677
G1 X234.806 Y65.198 E.09379
G1 X234.806 Y65.732 E.01677
G1 X232.694 Y63.62 E.09379
G1 X232.694 Y64.154 E.01677
G1 X234.806 Y66.266 E.09379
G1 X234.806 Y66.801 E.0168
G1 X232.694 Y64.688 E.09382
G1 X232.694 Y65.222 E.01677
G1 X234.806 Y67.335 E.09382
G1 X234.806 Y67.869 E.01677
G1 X232.694 Y65.756 E.09382
G1 X232.694 Y66.29 E.01677
G1 X234.806 Y68.403 E.09382
G1 X234.806 Y68.937 E.01677
G1 X232.694 Y66.824 E.09382
G1 X232.694 Y67.358 E.01677
G1 X234.806 Y69.471 E.09382
G1 X234.806 Y70.005 E.01677
G1 X232.694 Y67.893 E.09379
G1 X232.694 Y68.427 E.01677
G1 X234.806 Y70.539 E.09379
G1 X234.806 Y71.073 E.01677
G1 X232.694 Y68.961 E.09379
G1 X232.694 Y69.495 E.01677
G1 X234.806 Y71.607 E.09379
G1 X234.806 Y72.141 E.01677
G1 X232.694 Y70.029 E.09379
G1 X232.694 Y70.563 E.01677
G1 X234.806 Y72.676 E.09382
G1 X234.806 Y73.21 E.01677
G1 X232.694 Y71.097 E.09382
G1 X232.694 Y71.631 E.01677
G1 X234.806 Y73.744 E.09382
G1 X234.806 Y74.278 E.01677
G1 X232.694 Y72.165 E.09382
G1 X232.694 Y72.699 E.01677
G1 X234.806 Y74.812 E.09382
G1 X234.806 Y75.346 E.01677
G1 X232.694 Y73.233 E.09382
G1 X232.694 Y73.768 E.0168
G1 X234.806 Y75.88 E.09379
G1 X234.806 Y76.414 E.01677
G1 X232.694 Y74.302 E.09379
G1 X232.694 Y74.836 E.01677
G1 X234.806 Y76.948 E.09379
G1 X234.806 Y77.482 E.01677
G1 X232.694 Y75.37 E.09379
G1 X232.694 Y75.904 E.01677
G1 X234.806 Y78.016 E.09379
G1 X234.806 Y78.551 E.0168
G1 X232.694 Y76.438 E.09382
G1 X232.694 Y76.972 E.01677
G1 X234.806 Y79.085 E.09382
G1 X234.806 Y79.619 E.01677
G1 X232.694 Y77.506 E.09382
G1 X232.694 Y78.04 E.01677
G1 X234.806 Y80.153 E.09382
G1 X234.806 Y80.687 E.01677
G1 X232.694 Y78.574 E.09382
G1 X232.694 Y79.108 E.01677
G1 X234.806 Y81.221 E.09382
G1 X234.806 Y81.755 E.01677
G1 X232.694 Y79.643 E.09379
G1 X232.694 Y80.177 E.01677
G1 X234.806 Y82.289 E.09379
G1 X234.806 Y82.823 E.01677
G1 X232.694 Y80.711 E.09379
G1 X232.694 Y81.245 E.01677
G1 X234.806 Y83.357 E.09379
G1 X234.806 Y83.891 E.01677
G1 X232.694 Y81.779 E.09379
G1 X232.694 Y82.313 E.01677
G1 X234.806 Y84.426 E.09382
G1 X234.806 Y84.96 E.01677
G1 X232.694 Y82.847 E.09382
G1 X232.694 Y83.381 E.01677
G1 X234.806 Y85.494 E.09382
G1 X234.806 Y86.028 E.01677
G1 X232.694 Y83.915 E.09382
G1 X232.694 Y84.449 E.01677
G1 X234.806 Y86.562 E.09382
G1 X234.806 Y87.096 E.01677
G1 X232.694 Y84.983 E.09382
G1 X232.694 Y85.518 E.0168
G1 X234.806 Y87.63 E.09379
G1 X234.806 Y88.164 E.01677
G1 X232.694 Y86.052 E.09379
G1 X232.694 Y86.586 E.01677
G1 X234.806 Y88.698 E.09379
G1 X234.806 Y89.232 E.01677
G1 X232.694 Y87.12 E.09379
G1 X232.694 Y87.654 E.01677
G1 X234.806 Y89.766 E.09379
G1 X234.806 Y90.301 E.0168
G1 X232.694 Y88.188 E.09382
G1 X232.694 Y88.722 E.01677
G1 X234.806 Y90.835 E.09382
G1 X234.806 Y91.369 E.01677
G1 X232.694 Y89.256 E.09382
G1 X232.694 Y89.79 E.01677
G1 X234.806 Y91.903 E.09382
G1 X234.806 Y92.437 E.01677
G1 X232.694 Y90.324 E.09382
G1 X232.694 Y90.858 E.01677
G1 X234.806 Y92.971 E.09382
G1 X234.806 Y93.505 E.01677
G1 X232.694 Y91.393 E.09379
G1 X232.694 Y91.927 E.01677
G1 X234.806 Y94.039 E.09379
G1 X234.806 Y94.573 E.01677
G1 X232.694 Y92.461 E.09379
G1 X232.694 Y92.995 E.01677
G1 X234.806 Y95.107 E.09379
G1 X234.806 Y95.641 E.01677
G1 X232.694 Y93.529 E.09379
G1 X232.694 Y94.063 E.01677
G1 X234.806 Y96.176 E.09382
G1 X234.806 Y96.71 E.01677
M73 Q0 S315
G1 X232.694 Y94.597 E.09382
G1 X232.694 Y95.131 E.01677
G1 X234.806 Y97.244 E.09382
G1 X234.806 Y97.778 E.01677
G1 X232.694 Y95.665 E.09382
G1 X232.694 Y96.199 E.01677
G1 X234.806 Y98.312 E.09382
G1 X234.806 Y98.846 E.01677
G1 X232.694 Y96.733 E.09382
G1 X232.694 Y97.267 E.01677
G1 X234.806 Y99.38 E.09382
G1 X234.806 Y99.914 E.01677
G1 X232.694 Y97.802 E.09379
G1 X232.694 Y98.336 E.01677
G1 X234.806 Y100.448 E.09379
G1 X234.806 Y100.982 E.01677
G1 X232.694 Y98.87 E.09379
G1 X232.694 Y99.404 E.01677
G1 X234.806 Y101.516 E.09379
G1 X234.806 Y102.051 E.0168
G1 X232.694 Y99.938 E.09382
G1 X232.694 Y100.472 E.01677
G1 X234.806 Y102.585 E.09382
G1 X234.806 Y103.119 E.01677
G1 X232.694 Y101.006 E.09382
G1 X232.694 Y101.54 E.01677
G1 X234.806 Y103.653 E.09382
G1 X234.806 Y104.187 E.01677
G1 X232.694 Y102.074 E.09382
G1 X232.694 Y102.608 E.01677
G1 X234.806 Y104.721 E.09382
G1 X234.806 Y105.255 E.01677
G1 X232.694 Y103.142 E.09382
G1 X232.694 Y103.677 E.0168
G1 X234.806 Y105.789 E.09379
G1 X234.806 Y106.323 E.01677
G1 X232.694 Y104.211 E.09379
G1 X232.694 Y104.745 E.01677
G1 X234.806 Y106.857 E.09379
G1 X234.806 Y107.391 E.01677
G1 X232.694 Y105.279 E.09379
G1 X232.694 Y105.813 E.01677
G1 X234.806 Y107.926 E.09382
G1 X234.806 Y108.46 E.01677
G1 X232.694 Y106.347 E.09382
G1 X232.694 Y106.881 E.01677
G1 X234.806 Y108.994 E.09382
G1 X234.806 Y109.528 E.01677
G1 X232.694 Y107.415 E.09382
G1 X232.694 Y107.949 E.01677
G1 X234.806 Y110.062 E.09382
G1 X234.806 Y110.596 E.01677
G1 X232.694 Y108.483 E.09382
G1 X232.694 Y109.017 E.01677
G1 X234.806 Y111.13 E.09382
G1 X234.806 Y111.664 E.01677
G1 X232.694 Y109.552 E.09379
G1 X232.694 Y110.086 E.01677
G1 X234.806 Y112.198 E.09379
G1 X234.806 Y112.732 E.01677
G1 X232.694 Y110.62 E.09379
G1 X232.694 Y111.154 E.01677
G1 X234.806 Y113.266 E.09379
G1 X234.806 Y113.801 E.0168
G1 X232.694 Y111.688 E.09382
G1 X232.694 Y112.222 E.01677
G1 X234.806 Y114.335 E.09382
G1 X234.806 Y114.869 E.01677
G1 X232.694 Y112.756 E.09382
G1 X232.694 Y113.29 E.01677
G1 X234.806 Y115.403 E.09382
G1 X234.806 Y115.937 E.01677
G1 X232.694 Y113.824 E.09382
G1 X232.694 Y114.358 E.01677
G1 X234.806 Y116.471 E.09382
G1 X234.806 Y117.005 E.01677
G1 X232.694 Y114.892 E.09382
G1 X232.694 Y115.427 E.0168
G1 X234.806 Y117.539 E.09379
G1 X234.806 Y118.073 E.01677
G1 X232.694 Y115.961 E.09379
G1 X232.694 Y116.495 E.01677
G1 X234.806 Y118.607 E.09379
G1 X234.806 Y119.141 E.01677
G1 X232.694 Y117.029 E.09379
G1 X232.694 Y117.563 E.01677
G1 X234.806 Y119.676 E.09382
G1 X234.806 Y120.21 E.01677
G1 X232.694 Y118.097 E.09382
G1 X232.694 Y118.631 E.01677
G1 X234.806 Y120.744 E.09382
G1 X234.806 Y121.278 E.01677
G1 X232.694 Y119.165 E.09382
G1 X232.694 Y119.699 E.01677
G1 X234.806 Y121.812 E.09382
G1 X234.806 Y122.346 E.01677
G1 X232.694 Y120.233 E.09382
G1 X232.694 Y120.767 E.01677
G1 X234.806 Y122.88 E.09382
G1 X234.806 Y123.414 E.01677
G1 X232.694 Y121.302 E.09379
G1 X232.694 Y121.836 E.01677
G1 X234.806 Y123.948 E.09379
G1 X234.806 Y124.482 E.01677
G1 X232.694 Y122.37 E.09379
G1 X232.694 Y122.904 E.01677
G1 X234.806 Y125.016 E.09379
G1 X234.806 Y125.551 E.0168
G1 X232.694 Y123.438 E.09382
G1 X232.694 Y123.972 E.01677
G1 X234.806 Y126.085 E.09382
G1 X234.806 Y126.619 E.01677
G1 X232.694 Y124.506 E.09382
G1 X232.694 Y125.04 E.01677
G1 X234.806 Y127.153 E.09382
G1 X234.806 Y127.687 E.01677
G1 X232.694 Y125.574 E.09382
G1 X232.694 Y126.108 E.01677
G1 X234.806 Y128.221 E.09382
G1 X234.806 Y128.755 E.01677
G1 X232.694 Y126.642 E.09382
G1 X232.694 Y127.177 E.0168
G1 X234.806 Y129.289 E.09379
G1 X234.806 Y129.823 E.01677
G1 X232.694 Y127.711 E.09379
G1 X232.694 Y128.245 E.01677
G1 X234.806 Y130.357 E.09379
G1 X234.806 Y130.891 E.01677
G1 X232.694 Y128.779 E.09379
G1 X232.694 Y129.313 E.01677
G1 X234.806 Y131.425 E.09379
G1 X234.806 Y131.96 E.0168
M73 P0 R305
G1 X232.694 Y129.847 E.09382
G1 X232.694 Y130.381 E.01677
G1 X234.806 Y132.494 E.09382
G1 X234.806 Y133.028 E.01677
G1 X232.694 Y130.915 E.09382
G1 X232.694 Y131.449 E.01677
G1 X234.806 Y133.562 E.09382
G1 X234.806 Y134.096 E.01677
G1 X232.694 Y131.983 E.09382
G1 X232.694 Y132.517 E.01677
G1 X234.806 Y134.63 E.09382
G1 X234.806 Y135.164 E.01677
G1 X232.694 Y133.052 E.09379
G1 X232.694 Y133.586 E.01677
G1 X234.806 Y135.698 E.09379
G1 X234.806 Y136.232 E.01677
G1 X232.694 Y134.12 E.09379
G1 X232.694 Y134.654 E.01677
G1 X234.806 Y136.766 E.09379
G1 X234.806 Y137.3 E.01677
G1 X232.694 Y135.188 E.09379
G1 X232.694 Y135.722 E.01677
G1 X234.806 Y137.835 E.09382
G1 X234.806 Y138.369 E.01677
G1 X232.694 Y136.256 E.09382
G1 X232.694 Y136.79 E.01677
G1 X234.806 Y138.903 E.09382
G1 X234.806 Y139.437 E.01677
G1 X232.694 Y137.324 E.09382
G1 X232.694 Y137.858 E.01677
