; generated by PrusaSlicer 2.8.0+linux-x64-GTK3 on 2025-01-14 at 16:54:28 UTC


;
;
; 

; external perimeters extrusion width = 0.45mm
; perimeters extrusion width = 0.45mm
; infill extrusion width = 0.45mm
; solid infill extrusion width = 0.45mm
; top infill extrusion width = 0.40mm
; support material extrusion width = 0.35mm
; first layer extrusion width = 0.42mm

M73 P0 R141
M73 Q0 S142
M201 X1000 Y1000 Z200 E5000 ; sets maximum accelerations, mm/sec^2
M203 X200 Y200 Z12 E120 ; sets maximum feedrates, mm / sec
M204 S1250 T1250 ; sets acceleration (S) and retract acceleration (R), mm/sec^2
M205 X8.00 Y8.00 Z0.40 E4.50 ; sets the jerk limits, mm/sec
M205 S0 T0 ; sets the minimum extruding and travel feed rate, mm/sec

; printing object microwell_holder.stl id:0 copy 0
; stop printing object microwell_holder.stl id:0 copy 0

;TYPE:Custom
M862.3 P "MK3S" ; printer model check
M862.1 P0.4 ; nozzle diameter check
M115 U3.14.0 ; tell printer latest fw version
G90 ; use absolute coordinates
M83 ; extruder relative mode
M104 S230 ; set extruder temp
M140 S85 ; set bed temp
M190 S85 ; wait for bed temp
M109 S230 ; wait for extruder temp
G28 W ; home all without mesh bed level
G80 X32.0729 Y33.3229 W185.854 H143.354 ; mesh bed levelling

G1 Z0.2 F720
G1 Y-3 F1000 ; go outside print area
G92 E0
G1 X60 E9 F1000 ; intro line
G1 X100 E12.5 F1000 ; intro line

G92 E0
M221 S95

; Don't change E values below. Excessive value can damage the printer.

M907 E538 ; set extruder motor current
G21 ; set units to millimeters
G90 ; use absolute coordinates
M83 ; use relative distances for extrusion

M900 K0.08 ; Filament gcode LA 1.5
M900 K45 ; Filament gcode LA 1.0




M107
;LAYER_CHANGE
;Z:0.2
;HEIGHT:0.2
G1 E-1 F2100
G1 Z.4 F720
G1 X35.425 Y47.233 F10800
G1 Z.2 F720
G1 E1 F2100
M204 S800
;TYPE:Skirt/Brim
;WIDTH:0.42
G1 F1200
G1 X53.137 Y33.949 E.69418
G1 X54.45 Y33.511 E.0434
G1 X195.55 Y33.511 E4.42409
G1 X196.863 Y33.949 E.0434
G1 X216.863 Y48.949 E.78386
G1 X217.627 Y50.011 E.04102
G1 X217.739 Y50.7 E.02189
G1 X217.739 Y159.3 E3.40508
G1 X217.348 Y160.548 E.04101
G1 X216.863 Y161.051 E.02191
G1 X196.863 Y176.051 E.78386
G1 X195.55 Y176.489 E.0434
G1 X54.45 Y176.489 E4.42409
G1 X53.137 Y176.051 E.0434
M73 P0 R140
M73 Q0 S141
G1 X33.137 Y161.051 E.78386
G1 X32.373 Y159.989 E.04102
G1 X32.261 Y159.3 E.02189
G1 X32.261 Y50.7 E3.40508
G1 X32.652 Y49.452 E.04101
G1 X33.137 Y48.949 E.02191
G1 X35.377 Y47.269 E.08779
M204 S1000
;WIPE_START
G1 F8640
G1 X35.425 Y47.233 E-.01385
G1 X38.842 Y44.671 E-.98615
;WIPE_END
G1 Z.4 F720
; printing object microwell_holder.stl id:0 copy 0
G1 X188.697 Y62.556 F10800
G1 Z.2 F720
G1 E1 F2100
M204 S800
;TYPE:Perimeter
;WIDTH:0.419999
G1 F1200
G1 X188.844 Y62.709 E.00665
G1 X189.043 Y63.126 E.01449
G1 X189.091 Y63.479 E.01117
G1 X189.091 Y70.459 E.21885
G1 X189.771 Y70.459 E.02132
G1 X190.19 Y70.527 E.01331
G1 X190.628 Y70.774 E.01577
G1 X190.917 Y71.123 E.01421
G1 X191.066 Y71.522 E.01335
G1 X191.091 Y71.779 E.0081
G1 X191.091 Y98.221 E.82907
G1 X191.021 Y98.647 E.01354
G1 X190.826 Y99.015 E.01306
G1 X190.637 Y99.217 E.00867
G1 X190.198 Y99.47 E.01589
G1 X189.771 Y99.541 E.01357
G1 X189.091 Y99.541 E.02132
G1 X189.091 Y110.459 E.34233
G1 X189.771 Y110.459 E.02132
G1 X190.198 Y110.53 E.01357
G1 X190.637 Y110.783 E.01589
G1 X190.918 Y111.124 E.01385
G1 X191.065 Y111.519 E.01321
G1 X191.091 Y111.779 E.00819
G1 X191.091 Y138.221 E.82907
G1 X191.02 Y138.65 E.01363
G1 X190.818 Y139.025 E.01336
G1 X190.628 Y139.226 E.00867
G1 X190.19 Y139.473 E.01577
G1 X189.771 Y139.541 E.01331
G1 X189.091 Y139.541 E.02132
G1 X189.091 Y146.521 E.21885
G1 X189.043 Y146.874 E.01117
G1 X188.844 Y147.291 E.01449
G1 X188.517 Y147.611 E.01435
G1 X188.115 Y147.796 E.01388
G1 X187.703 Y147.841 E.01299
G1 X180.541 Y147.841 E.22456
G1 X180.541 Y148.521 E.02132
G1 X180.475 Y148.933 E.01308
G1 X180.233 Y149.369 E.01564
G1 X179.901 Y149.653 E.0137
G1 X179.535 Y149.803 E.0124
G1 X179.151 Y149.841 E.0121
G1 X136.779 Y149.841 E1.32854
G1 X136.378 Y149.779 E.01272
G1 X136.016 Y149.599 E.01268
G1 X135.81 Y149.418 E.0086
G1 X135.677 Y149.248 E.00677
G1 X135.539 Y148.974 E.00962
G1 X135.459 Y148.521 E.01442
G1 X135.459 Y147.841 E.02132
G1 X114.541 Y147.841 E.65587
G1 X114.541 Y148.521 E.02132
G1 X114.461 Y148.974 E.01442
G1 X114.323 Y149.248 E.00962
G1 X114.077 Y149.526 E.01164
G1 X113.697 Y149.753 E.01388
G1 X113.303 Y149.839 E.01264
G1 X70.779 Y149.841 E1.33331
G1 X70.334 Y149.764 E.01416
G1 X69.966 Y149.561 E.01318
G1 X69.767 Y149.369 E.00867
G1 X69.525 Y148.933 E.01564
G1 X69.459 Y148.521 E.01308
G1 X69.459 Y147.841 E.02132
G1 X62.229 Y147.841 E.22669
G1 X61.802 Y147.77 E.01357
G1 X61.414 Y147.56 E.01383
G1 X61.129 Y147.251 E.01318
G1 X60.957 Y146.874 E.01299
G1 X60.909 Y146.521 E.01117
G1 X60.909 Y139.541 E.21885
G1 X60.229 Y139.541 E.02132
G1 X59.81 Y139.473 E.01331
G1 X59.372 Y139.226 E.01577
G1 X59.083 Y138.877 E.01421
G1 X58.934 Y138.478 E.01335
G1 X58.909 Y138.221 E.0081
G1 X58.909 Y111.779 E.82907
G1 X58.929 Y111.551 E.00718
G1 X59.044 Y111.197 E.01167
G1 X59.251 Y110.892 E.01156
G1 X59.533 Y110.657 E.01151
G1 X59.802 Y110.53 E.00933
G1 X60.229 Y110.459 E.01357
G1 X60.909 Y110.459 E.02132
G1 X60.909 Y99.541 E.34233
G1 X60.229 Y99.541 E.02132
G1 X59.802 Y99.47 E.01357
G1 X59.363 Y99.217 E.01589
G1 X59.082 Y98.876 E.01385
G1 X58.935 Y98.481 E.01321
G1 X58.909 Y98.221 E.00819
G1 X58.909 Y71.779 E.82907
G1 X58.98 Y71.35 E.01363
G1 X59.182 Y70.975 E.01336
G1 X59.372 Y70.774 E.00867
G1 X59.81 Y70.527 E.01577
G1 X60.229 Y70.459 E.01331
G1 X60.909 Y70.459 E.02132
G1 X60.909 Y63.479 E.21885
G1 X60.957 Y63.126 E.01117
G1 X61.156 Y62.709 E.01449
G1 X61.483 Y62.389 E.01435
G1 X61.885 Y62.204 E.01388
G1 X62.297 Y62.159 E.01299
G1 X69.459 Y62.159 E.22456
G1 X69.459 Y61.479 E.02132
G1 X69.525 Y61.067 E.01308
G1 X69.767 Y60.631 E.01564
G1 X70.099 Y60.347 E.0137
G1 X70.465 Y60.197 E.0124
G1 X70.849 Y60.159 E.0121
G1 X113.221 Y60.159 E1.32854
G1 X113.622 Y60.221 E.01272
G1 X113.984 Y60.401 E.01268
G1 X114.19 Y60.582 E.0086
G1 X114.323 Y60.752 E.00677
G1 X114.461 Y61.026 E.00962
G1 X114.541 Y61.479 E.01442
G1 X114.541 Y62.159 E.02132
G1 X135.459 Y62.159 E.65587
G1 X135.459 Y61.479 E.02132
G1 X135.539 Y61.026 E.01442
G1 X135.677 Y60.752 E.00962
G1 X135.923 Y60.474 E.01164
G1 X136.303 Y60.247 E.01388
G1 X136.697 Y60.161 E.01264
G1 X179.221 Y60.159 E1.33331
G1 X179.666 Y60.236 E.01416
G1 X180.034 Y60.439 E.01318
G1 X180.233 Y60.631 E.00867
G1 X180.475 Y61.067 E.01564
G1 X180.541 Y61.479 E.01308
G1 X180.541 Y62.159 E.02132
G1 X187.771 Y62.159 E.22669
G1 X188.198 Y62.23 E.01357
G1 X188.586 Y62.44 E.01383
G1 X188.655 Y62.512 E.00313
M204 S1000
G1 X188.655 Y62.512 F10800
G1 X188.44 Y62.826
M204 S800
G1 F1200
G1 X188.601 Y63.031 E.00817
G1 X188.704 Y63.34 E.01021
G1 X188.714 Y70.836 E.23503
G1 X189.771 Y70.836 E.03314
G1 X190.07 Y70.885 E.0095
G1 X190.383 Y71.061 E.01126
G1 X190.617 Y71.361 E.01193
G1 X190.711 Y71.702 E.01109
G1 X190.714 Y71.779 E.00242
G1 X190.714 Y98.221 E.82907
G1 X190.642 Y98.582 E.01154
G1 X190.47 Y98.854 E.01009
G1 X190.268 Y99.023 E.00826
G1 X190.076 Y99.114 E.00666
G1 X189.771 Y99.164 E.00969
G1 X188.714 Y99.164 E.03314
G1 X188.714 Y110.836 E.36597
G1 X189.771 Y110.836 E.03314
G1 X190.076 Y110.886 E.00969
G1 X190.39 Y111.067 E.01136
G1 X190.618 Y111.363 E.01171
G1 X190.712 Y111.716 E.01145
G1 X190.714 Y138.221 E.83104
G1 X190.64 Y138.588 E.01174
G1 X190.464 Y138.861 E.01018
G1 X190.261 Y139.027 E.00822
G1 X190.07 Y139.115 E.00659
G1 X189.771 Y139.164 E.0095
G1 X188.714 Y139.164 E.03314
G1 X188.714 Y146.521 E.23067
G1 X188.64 Y146.887 E.01171
G1 X188.464 Y147.161 E.01021
G1 X188.208 Y147.357 E.01011
G1 X187.86 Y147.46 E.01138
G1 X180.164 Y147.464 E.2413
G1 X180.164 Y148.521 E.03314
G1 X180.117 Y148.816 E.00937
G1 X179.944 Y149.127 E.01116
G1 X179.658 Y149.357 E.01151
G1 X179.339 Y149.457 E.01048
G1 X178.418 Y149.464 E.02888
G1 X136.779 Y149.464 E1.30556
G1 X136.439 Y149.401 E.01084
G1 X136.167 Y149.239 E.00993
G1 X135.992 Y149.041 E.00829
G1 X135.893 Y148.844 E.00691
G1 X135.836 Y148.521 E.01028
G1 X135.836 Y147.464 E.03314
G1 X114.164 Y147.464 E.67951
G1 X114.164 Y148.521 E.03314
G1 X114.107 Y148.844 E.01028
G1 X113.913 Y149.162 E.01168
G1 X113.613 Y149.379 E.01161
G1 X113.28 Y149.462 E.01076
G1 X70.779 Y149.464 E1.33259
G1 X70.461 Y149.409 E.01012
G1 X70.198 Y149.264 E.00942
G1 X69.969 Y149.005 E.01084
G1 X69.883 Y148.816 E.00651
G1 X69.836 Y148.521 E.00937
G1 X69.836 Y147.464 E.03314
G1 X62.229 Y147.464 E.23851
G1 X61.859 Y147.389 E.01184
G1 X61.598 Y147.222 E.00972
G1 X61.399 Y146.969 E.01009
G1 X61.296 Y146.66 E.01021
G1 X61.286 Y139.164 E.23503
G1 X60.229 Y139.164 E.03314
G1 X59.93 Y139.115 E.0095
G1 X59.617 Y138.939 E.01126
G1 X59.383 Y138.639 E.01193
G1 X59.289 Y138.298 E.01109
G1 X59.286 Y111.779 E.83148
G1 X59.3 Y111.616 E.00513
G1 X59.437 Y111.267 E.01176
G1 X59.61 Y111.067 E.00829
G1 X59.924 Y110.886 E.01136
G1 X60.229 Y110.836 E.00969
G1 X61.286 Y110.836 E.03314
G1 X61.286 Y99.164 E.36597
G1 X60.229 Y99.164 E.03314
G1 X59.924 Y99.114 E.00969
G1 X59.61 Y98.933 E.01136
G1 X59.382 Y98.637 E.01171
G1 X59.288 Y98.284 E.01145
G1 X59.286 Y71.779 E.83104
G1 X59.36 Y71.412 E.01174
G1 X59.536 Y71.139 E.01018
G1 X59.739 Y70.973 E.00822
G1 X59.93 Y70.885 E.00659
G1 X60.229 Y70.836 E.0095
G1 X61.286 Y70.836 E.03314
G1 X61.286 Y63.479 E.23067
G1 X61.36 Y63.113 E.01171
G1 X61.536 Y62.839 E.01021
G1 X61.792 Y62.643 E.01011
G1 X62.14 Y62.54 E.01138
G1 X69.836 Y62.536 E.2413
G1 X69.836 Y61.479 E.03314
G1 X69.883 Y61.184 E.00937
G1 X70.056 Y60.873 E.01116
G1 X70.342 Y60.643 E.01151
G1 X70.661 Y60.543 E.01048
G1 X113.221 Y60.536 E1.33444
G1 X113.561 Y60.599 E.01084
G1 X113.833 Y60.761 E.00993
G1 X114.008 Y60.959 E.00829
G1 X114.107 Y61.156 E.00691
G1 X114.164 Y61.479 E.01028
G1 X114.164 Y62.536 E.03314
G1 X135.836 Y62.536 E.67951
G1 X135.836 Y61.479 E.03314
G1 X135.893 Y61.156 E.01028
G1 X136.087 Y60.838 E.01168
G1 X136.387 Y60.621 E.01161
G1 X136.72 Y60.538 E.01076
G1 X179.221 Y60.536 E1.33259
G1 X179.539 Y60.591 E.01012
G1 X179.802 Y60.736 E.00942
G1 X180.031 Y60.995 E.01084
G1 X180.117 Y61.184 E.00651
G1 X180.164 Y61.479 E.00937
G1 X180.164 Y62.536 E.03314
G1 X187.771 Y62.536 E.23851
G1 X188.141 Y62.611 E.01184
M73 P0 R139
G1 X188.402 Y62.778 E.00972
M204 S1000
G1 X188.402 Y62.778 F10800
G1 X188.157 Y63.085
M204 S800
G1 F1200
G1 X188.231 Y63.149 E.00307
G1 X188.331 Y63.395 E.00833
G1 X188.337 Y71.213 E.24513
G1 X189.771 Y71.213 E.04496
G1 X190.065 Y71.295 E.00957
G1 X190.262 Y71.497 E.00885
G1 X190.337 Y71.779 E.00915
G1 X190.337 Y98.221 E.82907
G1 X190.263 Y98.502 E.00911
M73 P1 R139
M73 Q1 S141
G1 X190.069 Y98.702 E.00874
G1 X189.771 Y98.787 E.00972
G1 X188.337 Y98.787 E.04496
G1 X188.337 Y111.213 E.38961
G1 X189.771 Y111.213 E.04496
G1 X190.069 Y111.298 E.00972
G1 X190.263 Y111.498 E.00874
G1 X190.337 Y111.779 E.00911
G1 X190.337 Y138.221 E.82907
G1 X190.279 Y138.472 E.00808
G1 X190.138 Y138.652 E.00717
G1 X189.951 Y138.758 E.00674
G1 X189.771 Y138.787 E.00572
G1 X188.337 Y138.787 E.04496
G1 X188.337 Y146.521 E.24249
G1 X188.269 Y146.79 E.0087
G1 X188.091 Y146.988 E.00835
G1 X187.824 Y147.085 E.00891
G1 X179.787 Y147.087 E.25199
G1 X179.787 Y148.521 E.04496
G1 X179.707 Y148.811 E.00943
G1 X179.513 Y149.006 E.00862
G1 X179.292 Y149.083 E.00734
G1 X178.418 Y149.087 E.0274
G1 X136.779 Y149.087 E1.30556
G1 X136.514 Y149.021 E.00856
M73 Q1 S140
G1 X136.306 Y148.833 E.00879
G1 X136.213 Y148.521 E.01021
G1 X136.213 Y147.087 E.04496
G1 X113.787 Y147.087 E.70315
G1 X113.787 Y148.521 E.04496
G1 X113.694 Y148.833 E.01021
G1 X113.486 Y149.021 E.00879
G1 X113.221 Y149.087 E.00856
G1 X70.779 Y149.087 E1.33074
G1 X70.517 Y149.023 E.00846
G1 X70.345 Y148.885 E.00691
G1 X70.241 Y148.698 E.00671
G1 X70.213 Y148.521 E.00562
G1 X70.213 Y147.087 E.04496
G1 X62.229 Y147.087 E.25033
G1 X61.967 Y147.023 E.00846
G1 X61.757 Y146.834 E.00886
G1 X61.669 Y146.605 E.00769
G1 X61.663 Y138.787 E.24513
G1 X60.229 Y138.787 E.04496
G1 X59.935 Y138.705 E.00957
G1 X59.738 Y138.503 E.00885
G1 X59.665 Y138.267 E.00775
G1 X59.671 Y111.681 E.83358
G1 X59.777 Y111.438 E.00831
G1 X59.931 Y111.298 E.00653
G1 X60.229 Y111.213 E.00972
G1 X61.663 Y111.213 E.04496
G1 X61.663 Y98.787 E.38961
G1 X60.229 Y98.787 E.04496
G1 X59.931 Y98.702 E.00972
G1 X59.737 Y98.502 E.00874
G1 X59.663 Y98.221 E.00911
G1 X59.663 Y71.779 E.82907
G1 X59.721 Y71.528 E.00808
G1 X59.862 Y71.348 E.00717
G1 X60.049 Y71.242 E.00674
G1 X60.229 Y71.213 E.00572
G1 X61.663 Y71.213 E.04496
G1 X61.663 Y63.479 E.24249
G1 X61.731 Y63.21 E.0087
G1 X61.909 Y63.012 E.00835
G1 X62.176 Y62.915 E.00891
G1 X70.213 Y62.913 E.25199
G1 X70.213 Y61.479 E.04496
G1 X70.293 Y61.189 E.00943
G1 X70.487 Y60.994 E.00862
G1 X70.708 Y60.917 E.00734
G1 X113.221 Y60.913 E1.33296
G1 X113.486 Y60.979 E.00856
G1 X113.694 Y61.167 E.00879
G1 X113.787 Y61.479 E.01021
G1 X113.787 Y62.913 E.04496
G1 X136.213 Y62.913 E.70315
G1 X136.213 Y61.479 E.04496
G1 X136.306 Y61.167 E.01021
G1 X136.514 Y60.979 E.00879
G1 X136.779 Y60.913 E.00856
G1 X179.221 Y60.913 E1.33074
G1 X179.483 Y60.977 E.00846
G1 X179.655 Y61.115 E.00691
G1 X179.759 Y61.302 E.00671
G1 X179.787 Y61.479 E.00562
G1 X179.787 Y62.913 E.04496
G1 X187.771 Y62.913 E.25033
G1 X188.033 Y62.977 E.00846
G1 X188.112 Y63.045 E.00327
M204 S1000
G1 X188.112 Y63.045 F10800
G1 X187.873 Y63.334
M204 S800
;TYPE:External perimeter
G1 F1200
G1 X187.91 Y63.351 E.00128
G1 X187.96 Y63.479 E.00431
G1 X187.96 Y71.59 E.25431
G1 X189.771 Y71.59 E.05678
G1 X189.921 Y71.664 E.00524
G1 X189.96 Y71.779 E.00381
G1 X189.96 Y98.221 E.82907
G1 X189.895 Y98.364 E.00493
G1 X189.771 Y98.41 E.00415
G1 X187.96 Y98.41 E.05678
G1 X187.96 Y111.59 E.41325
G1 X189.771 Y111.59 E.05678
G1 X189.922 Y111.665 E.00529
G1 X189.96 Y111.779 E.00377
G1 X189.96 Y138.221 E.82907
G1 X189.894 Y138.365 E.00497
G1 X189.771 Y138.41 E.00411
G1 X187.96 Y138.41 E.05678
G1 X187.96 Y146.521 E.25431
G1 X187.898 Y146.662 E.00483
G1 X187.771 Y146.71 E.00426
G1 X179.41 Y146.71 E.26215
G1 X179.41 Y148.521 E.05678
G1 X179.338 Y148.67 E.00519
G1 X179.151 Y148.71 E.006
G1 X136.779 Y148.71 E1.32854
G1 X136.64 Y148.649 E.00476
G1 X136.59 Y148.521 E.00431
G1 X136.59 Y146.71 E.05678
G1 X113.41 Y146.71 E.72679
G1 X113.41 Y148.521 E.05678
G1 X113.344 Y148.665 E.00497
G1 X113.221 Y148.71 E.00411
G1 X70.779 Y148.71 E1.33074
G1 X70.634 Y148.643 E.00501
G1 X70.59 Y148.521 E.00407
G1 X70.59 Y146.71 E.05678
G1 X62.229 Y146.71 E.26215
G1 X62.09 Y146.649 E.00476
G1 X62.04 Y146.521 E.00431
G1 X62.04 Y138.41 E.25431
G1 X60.229 Y138.41 E.05678
G1 X60.079 Y138.336 E.00524
G1 X60.04 Y138.221 E.00381
G1 X60.043 Y111.746 E.8301
G1 X60.129 Y111.618 E.00484
G1 X60.229 Y111.59 E.00326
G1 X62.04 Y111.59 E.05678
G1 X62.04 Y98.41 E.41325
G1 X60.229 Y98.41 E.05678
G1 X60.078 Y98.335 E.00529
G1 X60.04 Y98.221 E.00377
G1 X60.04 Y71.779 E.82907
G1 X60.106 Y71.635 E.00497
G1 X60.229 Y71.59 E.00411
G1 X62.04 Y71.59 E.05678
G1 X62.04 Y63.479 E.25431
G1 X62.102 Y63.338 E.00483
G1 X62.229 Y63.29 E.00426
G1 X70.59 Y63.29 E.26215
G1 X70.59 Y61.479 E.05678
G1 X70.662 Y61.33 E.00519
G1 X70.849 Y61.29 E.006
G1 X113.221 Y61.29 E1.32854
G1 X113.36 Y61.351 E.00476
G1 X113.41 Y61.479 E.00431
G1 X113.41 Y63.29 E.05678
G1 X136.59 Y63.29 E.72679
G1 X136.59 Y61.479 E.05678
G1 X136.656 Y61.335 E.00497
G1 X136.779 Y61.29 E.00411
G1 X179.221 Y61.29 E1.33074
G1 X179.366 Y61.357 E.00501
G1 X179.41 Y61.479 E.00407
G1 X179.41 Y63.29 E.05678
G1 X187.771 Y63.29 E.26215
G1 X187.818 Y63.31 E.0016
M204 S1000
;WIPE_START
G1 F8640
G1 X187.873 Y63.334 E-.01386
G1 X187.91 Y63.351 E-.0094
G1 X187.96 Y63.479 E-.03173
G1 X187.96 Y67.572 E-.94501
;WIPE_END
G1 Z.4 F720
G1 X47.902 Y158.73 F10800
G1 Z.2 F720
G1 E1 F2100
M204 S800
;TYPE:Perimeter
G1 F1200
G1 X47.752 Y158.8 E.00519
G1 X47.056 Y159.027 E.02295
G1 X46.731 Y159.089 E.01037
G1 X45.999 Y159.135 E.023
G1 X45.669 Y159.114 E.01037
G1 X44.949 Y158.977 E.02298
G1 X44.635 Y158.874 E.01036
G1 X43.972 Y158.562 E.02297
G1 X43.692 Y158.385 E.01039
G1 X43.128 Y157.918 E.02296
G1 X42.901 Y157.677 E.01038
G1 X42.471 Y157.084 E.02297
G1 X42.311 Y156.794 E.01038
